X:168
T:Dance for Ever
S:Colin Hume's website,  colinhume.com  - chords can also be printed below the stave.
Q:3/8=112
M:9/8
L:1/8
C:Thompson, 1765
K:D
P:A
|: "D"DFA AFD TE2D | "Em"EGB BGE "A7"TE3 | "D"DFA AFD TE2D | "G"dcB "D"AFD D3 :|
P:B
|: "D"def fdf a2f | "A7"efe ecA TB2A | "D"def fdf a2f | "A7"efe ecA A2A :|
P:C
|: "D"DFA AFD "Em"BGE | "D"DFA AFD "A7"ECA, | "D"DFA AFD "G"dcB | "A7"ABA "D"AFD D3 :|

